X:59
T:Greenwood Side
R:Reel
S:PINK BOOK
M:4/4
L:1/8
Q:112
K:Bm
|:F2 | "Bm" B2 Bc B2 A2 | Bcde f4 | "A" e2 ef efed | "A" c2 A2 A2 f2|!
"Bm" B2 Bc B2 A2 | Bcde f4 | "A" e2 a2 f2 ef| "Bm" d2 B2 B2 :|!
|:de | "Bm" f3 d B2 f2 | BBBd f4| "A" e2 ef efed | c2 A2 A2 de |!
"Bm" f3 d B2 f2 | BBBd f4 | "A" e2 a2 f2 ef | "Bm" d2 B2 B2 :||
